X: 32097
T: Permanent Way, The
R: hornpipe
M: 4/4
K: Gmajor
|:GE|DGFG BGBG|EAAB cBcA|F z fe dedB|cAFA GFEF|
DGFG BcBG|EAAB cBcA|F z fe dedB|cAFA G2:|
|:Bc|dgga babg|eaag fgfd|efge dedB|cAFA G2 Bc|
dgga babg|eaag fgfd|efge dedB|cAFA G2:|

